X: 1
T:Gan ainm
R:Reel
M:4/4
L:1/8
K:A
cEE2 c2Bc|AFFE FAEA|F3E FGAB|cBAB cffe|\
cEE2 c2Bc|AFFE FAEA|F3E FGAB|cABG A4:||\
aefe c2Bc|AFEF ABce|f2ba fbaf|ecAB cAce|\
aefe c2Bc|AFEF ABce|f2ba fbaf|ecBc A4:||
